X:1
T:Title
%%score { 1 | 2 }
L:1/8
M:6/4
K:Bb
V:1 treble nm="Grand Piano"
V:2 bass 
V:1
 z6 z4[Q:1/4=165] [DF]2 | [DB]4 [DB]2 [FA]4 [EG]2 | [DF]6 [B,D]4 [DF]2 | [FB]4 [FB]2 [EA]4 [DB]2 | %4
[M:5/4] [Fc]2- [Fc]2- [Fc]6 |[M:1/4] [DF]2 |[M:6/4] [Fd]4 [Fd]2 [Fc]4 [FB]2 | [FA]6 [EG]4 [EG]2 | %8
 [FA]4 [FA]2 [=EG]4 E2 |[M:5/4] F2- F2- F6 |[M:1/4] F2 |[M:6/4] c4 c2 d4 c2 | [DB]6 [DF]4 [DB]2 | %13
 c4 c2 d4 c2 |[M:5/4] [DB]2- [DB]2- [DB]6 |[M:1/4] [DF]2 |[M:6/4] [Fd]4 [Fd]2 [Fc]4 [FB]2 | %17
 [FA]6 G4 G2 | F4 F2 G4 F2 |[M:5/4] [DF]2- [DF]2- [DF]6 |] %20
V:2
 z6 z4 [B,,B,]2 | [B,,F,]4 [B,,F,]2 [B,,G,]4 [B,,A,]2 | [B,,B,]6 [B,,F,]4 [B,,B,]2 | %3
 [D,B,]4 [D,B,]2 [C,F,]4 [B,,B,]2 |[M:5/4] [F,A,]2- [F,A,]2- [F,A,]6 |[M:1/4] [B,,B,]2 | %6
[M:6/4] [B,,B,]4 [B,,B,]2 [C,A,]4 [D,B,]2 | [E,B,]6 [E,B,]4 [E,B,]2 | %8
 [C,C]4 [C,C]2 [C,B,]4 [C,G,C]2 |[M:5/4] [F,A,C]2- [F,A,C]2- [F,A,C]6 |[M:1/4] [F,A,]2 | %11
[M:6/4] [F,A,F]4 [F,A,F]2 [F,B,F]4 [F,A,E]2 | [B,,B,]6 [B,,B,]4 [B,,B,]2 | %13
 [F,A,F]4 [F,A,F]2 [F,B,F]4 [F,A,E]2 |[M:5/4] [B,,B,]2- [B,,B,]2- [B,,B,]6 |[M:1/4] [B,,B,]2 | %16
[M:6/4] [B,,B,]4 [B,,B,]2 [C,A,]4 [D,B,]2 | [E,B,]6 [E,B,E]4 [E,B,E]2 | %18
 [F,B,D]4 [D,B,]2 [E,B,E]4 [F,A,E]2 |[M:5/4] [B,,B,]2- [B,,B,]2- [B,,B,]6 |] %20

